pix_core/f/sourcecode.svg

<svg fill="none" preserveAspectRatio="xMinYMid meet" viewBox="0 0 24 24" xmlns="http://www.w3.org/2000/svg"><g clip-rule="evenodd" fill="#fff" fill-rule="evenodd"><path d="m12 12.3c-.9389 0-1.7.7611-1.7 1.7s.7611 1.7 1.7 1.7 1.7-.7611 1.7-1.7-.7611-1.7-1.7-1.7zm-.7 1.7c0-.3866.3134-.7.7-.7s.7.3134.7.7-.3134.7-.7.7-.7-.3134-.7-.7z"/><path d="m12 9.5c-.718 0-1.3.582-1.3 1.3 0 .0077-.0011.0113-.0013.0121-.0003.0009-.0006.0014-.001.002-.0012.0016-.0052.006-.0134.0094s-.0143.0032-.0162.0028l-.0021-.0007c-.0008-.0004-.0041-.0022-.0095-.0076-.5077-.5077-1.33079-.5077-1.83848 0-.50768.5077-.50768 1.3308 0 1.8385.00543.0054.0072.0087.00759.0095.00029.0005.00046.001.00058.0014-.00005-.0003.00006.0002 0 0 .00033.0019.00076.0087-.00264.0169s-.00785.0122-.00945.0134c-.00059.0004-.00109.0007-.00203.001-.00081.0002-.0044.0013-.01207.0013-.71797 0-1.3.582-1.3 1.3s.58203 1.3 1.3 1.3c.00767 0 .01126.0011.01207.0013.00094.0003.00144.0006.00203.001.0016.0012.00605.0052.00945.0134.00339.0082.00313.0143.00279.0162-.00012.0007-.00028.0012-.00073.0021-.00039.0008-.00217.0041-.00759.0095-.50768.5077-.50768 1.3308 0 1.8385s1.33078.5077 1.83848 0c.0054-.0054.0087-.0072.0095-.0076.0009-.0005.0014-.0006.0021-.0007.0019-.0004.008-.0006.0162.0028s.0122.0078.0134.0094l.0006.0011.0004.0009c.0002.0008.0013.0044.0013.0121 0 .718.582 1.3 1.3 1.3s1.3-.582 1.3-1.3c0-.0077.0011-.0113.0013-.0121.0003-.0009.0006-.0014.001-.002.0012-.0016.0052-.006.0134-.0094s.0143-.0032.0162-.0028c.0007.0001.0012.0002.0021.0007.0008.0004.0041.0022.0095.0076.5077.5077 1.3308.5077 1.8385 0s.5077-1.3308 0-1.8385c-.0054-.0054-.0072-.0087-.0076-.0095-.0005-.0009-.0006-.0014-.0007-.0021-.0004-.0019-.0006-.008.0028-.0162s.0078-.0122.0094-.0134c.0006-.0004.0011-.0007.002-.001.0008-.0002.0044-.0013.0121-.0013.718 0 1.3-.582 1.3-1.3s-.582-1.3-1.3-1.3c-.0077 0-.0113-.0011-.0121-.0013-.0009-.0003-.0014-.0006-.002-.001-.0016-.0012-.006-.0052-.0094-.0134s-.0032-.0143-.0028-.0162c.0001-.0007.0002-.0012.0007-.0021.0004-.0008.0022-.0041.0076-.0095.5077-.5077.5077-1.3308 0-1.8385s-1.3308-.5077-1.8385 0c-.0054.0054-.0087.0072-.0095.0076-.0009.0005-.0014.0006-.0021.0007-.0019.0004-.008.0006-.0162-.0028s-.0122-.0078-.0134-.0094c-.0004-.0006-.0007-.0011-.001-.002-.0002-.0008-.0013-.0044-.0013-.0121 0-.718-.582-1.3-1.3-1.3zm-.3 1.3c0-.1657.1343-.3.3-.3s.3.1343.3.3c0 .9136 1.1046 1.3711 1.7506.7251.1172-.1171.3071-.1171.4243 0 .1171.1172.1171.3071 0 .4243-.646.646-.1885 1.7506.7251 1.7506.1657 0 .3.1343.3.3s-.1343.3-.3.3c-.9136 0-1.3711 1.1046-.7251 1.7506.1171.1172.1171.3071 0 .4243-.1172.1171-.3071.1171-.4243 0-.646-.646-1.7506-.1885-1.7506.7251 0 .1657-.1343.3-.3.3s-.3-.1343-.3-.3c0-.9136-1.1046-1.3711-1.75061-.7251-.11715.1171-.3071.1171-.42426 0-.11716-.1172-.11716-.3071 0-.4243.64607-.646.18847-1.7506-.72513-1.7506-.16569 0-.3-.1343-.3-.3s.13431-.3.3-.3c.9136 0 1.3712-1.1046.72513-1.7506-.11716-.1172-.11716-.3071 0-.4243.11716-.1171.30711-.1171.42426 0 .64601.646 1.75061.1885 1.75061-.7251z"/><path d="m19.5 19v-10.17157c0-.66304-.2634-1.29893-.7322-1.76777l-3.8285-3.82843c-.4688-.46884-1.1047-.73223-1.7677-.73223h-6.1716c-1.38071 0-2.5 1.11929-2.5 2.5v14c0 1.3807 1.11929 2.5 2.5 2.5h10c1.3807 0 2.5-1.1193 2.5-2.5zm-12.5-15.5c-.82843 0-1.5.67157-1.5 1.5v14c0 .8284.67157 1.5 1.5 1.5h10c.8284 0 1.5-.6716 1.5-1.5v-10c0-.27614-.2239-.5-.5-.5h-3c-.8284 0-1.5-.67157-1.5-1.5v-3c0-.27614-.2239-.5-.5-.5zm10.7929 4-3.2929-3.29289v2.79289c0 .27614.2239.5.5.5z"/></g></svg>

<svg viewBox="0 0 24 24" fill="none" xmlns="http://www.w3.org/2000/svg" preserveAspectRatio="xMinYMid meet">
<path fill-rule="evenodd" clip-rule="evenodd" d="M12 12.3C11.0611 12.3 10.3 13.0611 10.3 14C10.3 14.9389 11.0611 15.7 12 15.7C12.9389 15.7 13.7 14.9389 13.7 14C13.7 13.0611 12.9389 12.3 12 12.3ZM11.3 14C11.3 13.6134 11.6134 13.3 12 13.3C12.3866 13.3 12.7 13.6134 12.7 14C12.7 14.3866 12.3866 14.7 12 14.7C11.6134 14.7 11.3 14.3866 11.3 14Z" fill="#fff"/>
<path fill-rule="evenodd" clip-rule="evenodd" d="M12 9.5C11.282 9.5 10.7 10.082 10.7 10.8C10.7 10.8077 10.6989 10.8113 10.6987 10.8121C10.6984 10.813 10.6981 10.8135 10.6977 10.8141C10.6965 10.8157 10.6925 10.8201 10.6843 10.8235C10.6761 10.8269 10.67 10.8267 10.6681 10.8263L10.666 10.8256C10.6652 10.8252 10.6619 10.8234 10.6565 10.818C10.1488 10.3103 9.32571 10.3103 8.81802 10.818C8.31034 11.3257 8.31034 12.1488 8.81802 12.6565C8.82345 12.6619 8.82522 12.6652 8.82561 12.666C8.8259 12.6665 8.82607 12.667 8.82619 12.6674C8.82614 12.6671 8.82625 12.6676 8.82619 12.6674C8.82652 12.6693 8.82695 12.6761 8.82355 12.6843C8.82015 12.6925 8.8157 12.6965 8.8141 12.6977C8.81351 12.6981 8.81301 12.6984 8.81207 12.6987C8.81126 12.6989 8.80767 12.7 8.8 12.7C8.08203 12.7 7.5 13.282 7.5 14C7.5 14.718 8.08203 15.3 8.8 15.3C8.80767 15.3 8.81126 15.3011 8.81207 15.3013C8.81301 15.3016 8.81351 15.3019 8.8141 15.3023C8.8157 15.3035 8.82015 15.3075 8.82355 15.3157C8.82694 15.3239 8.82668 15.33 8.82634 15.3319C8.82622 15.3326 8.82606 15.3331 8.82561 15.334C8.82522 15.3348 8.82344 15.3381 8.81802 15.3435C8.31034 15.8512 8.31034 16.6743 8.81802 17.182C9.3257 17.6897 10.1488 17.6897 10.6565 17.182C10.6619 17.1766 10.6652 17.1748 10.666 17.1744C10.6669 17.1739 10.6674 17.1738 10.6681 17.1737C10.67 17.1733 10.6761 17.1731 10.6843 17.1765C10.6925 17.1799 10.6965 17.1843 10.6977 17.1859L10.6983 17.187L10.6987 17.1879C10.6989 17.1887 10.7 17.1923 10.7 17.2C10.7 17.918 11.282 18.5 12 18.5C12.718 18.5 13.3 17.918 13.3 17.2C13.3 17.1923 13.3011 17.1887 13.3013 17.1879C13.3016 17.187 13.3019 17.1865 13.3023 17.1859C13.3035 17.1843 13.3075 17.1799 13.3157 17.1765C13.3239 17.1731 13.33 17.1733 13.3319 17.1737C13.3326 17.1738 13.3331 17.1739 13.334 17.1744C13.3348 17.1748 13.3381 17.1766 13.3435 17.182C13.8512 17.6897 14.6743 17.6897 15.182 17.182C15.6897 16.6743 15.6897 15.8512 15.182 15.3435C15.1766 15.3381 15.1748 15.3348 15.1744 15.334C15.1739 15.3331 15.1738 15.3326 15.1737 15.3319C15.1733 15.33 15.1731 15.3239 15.1765 15.3157C15.1799 15.3075 15.1843 15.3035 15.1859 15.3023C15.1865 15.3019 15.187 15.3016 15.1879 15.3013C15.1887 15.3011 15.1923 15.3 15.2 15.3C15.918 15.3 16.5 14.718 16.5 14C16.5 13.282 15.918 12.7 15.2 12.7C15.1923 12.7 15.1887 12.6989 15.1879 12.6987C15.187 12.6984 15.1865 12.6981 15.1859 12.6977C15.1843 12.6965 15.1799 12.6925 15.1765 12.6843C15.1731 12.6761 15.1733 12.67 15.1737 12.6681C15.1738 12.6674 15.1739 12.6669 15.1744 12.666C15.1748 12.6652 15.1766 12.6619 15.182 12.6565C15.6897 12.1488 15.6897 11.3257 15.182 10.818C14.6743 10.3103 13.8512 10.3103 13.3435 10.818C13.3381 10.8234 13.3348 10.8252 13.334 10.8256C13.3331 10.8261 13.3326 10.8262 13.3319 10.8263C13.33 10.8267 13.3239 10.8269 13.3157 10.8235C13.3075 10.8201 13.3035 10.8157 13.3023 10.8141C13.3019 10.8135 13.3016 10.813 13.3013 10.8121C13.3011 10.8113 13.3 10.8077 13.3 10.8C13.3 10.082 12.718 9.5 12 9.5ZM11.7 10.8C11.7 10.6343 11.8343 10.5 12 10.5C12.1657 10.5 12.3 10.6343 12.3 10.8C12.3 11.7136 13.4046 12.1711 14.0506 11.5251C14.1678 11.408 14.3577 11.408 14.4749 11.5251C14.592 11.6423 14.592 11.8322 14.4749 11.9494C13.8289 12.5954 14.2864 13.7 15.2 13.7C15.3657 13.7 15.5 13.8343 15.5 14C15.5 14.1657 15.3657 14.3 15.2 14.3C14.2864 14.3 13.8289 15.4046 14.4749 16.0506C14.592 16.1678 14.592 16.3577 14.4749 16.4749C14.3577 16.592 14.1678 16.592 14.0506 16.4749C13.4046 15.8289 12.3 16.2864 12.3 17.2C12.3 17.3657 12.1657 17.5 12 17.5C11.8343 17.5 11.7 17.3657 11.7 17.2C11.7 16.2864 10.5954 15.8289 9.94939 16.4749C9.83224 16.592 9.64229 16.592 9.52513 16.4749C9.40797 16.3577 9.40797 16.1678 9.52513 16.0506C10.1712 15.4046 9.7136 14.3 8.8 14.3C8.63431 14.3 8.5 14.1657 8.5 14C8.5 13.8343 8.63431 13.7 8.8 13.7C9.7136 13.7 10.1712 12.5954 9.52513 11.9494C9.40797 11.8322 9.40797 11.6423 9.52513 11.5251C9.64229 11.408 9.83224 11.408 9.94939 11.5251C10.5954 12.1711 11.7 11.7136 11.7 10.8Z" fill="#fff"/>
<path fill-rule="evenodd" clip-rule="evenodd" d="M19.5 19V8.82843C19.5 8.16539 19.2366 7.5295 18.7678 7.06066L14.9393 3.23223C14.4705 2.76339 13.8346 2.5 13.1716 2.5H7C5.61929 2.5 4.5 3.61929 4.5 5V19C4.5 20.3807 5.61929 21.5 7 21.5H17C18.3807 21.5 19.5 20.3807 19.5 19ZM7 3.5C6.17157 3.5 5.5 4.17157 5.5 5V19C5.5 19.8284 6.17157 20.5 7 20.5H17C17.8284 20.5 18.5 19.8284 18.5 19V9C18.5 8.72386 18.2761 8.5 18 8.5H15C14.1716 8.5 13.5 7.82843 13.5 7V4C13.5 3.72386 13.2761 3.5 13 3.5H7ZM17.7929 7.5L14.5 4.20711V7C14.5 7.27614 14.7239 7.5 15 7.5H17.7929Z" fill="#fff"/>
</svg>
